X: 16
T: The Christ'ning
R: jig
M: 6/8
L: 1/8
Z: 2010,2014 John Chambers <jc:trillian.mit.edu>
B: John Johnson ed. "Twenty Four Country Dances", p.80 London 1766
K: G
|:\
dcB ABG | cde def | gdb gdf | gdB GBd |\
gbf egB | AeG FED | ge^c dgf | Te3 d3 :|
|:\
de=f edc | BcA ^G=fe | dec BE^G | Ace a2g |\
fge ^dbf | g>fe/d/ ^ca=c | Bdg Dgf | gdB G3 :|
% - - - - - - - - - - - - - - - - - - - - - - - - -
%%begintext align
%% First Cu set & hands round with the 2d Wo
%% .| the same with the 2d Man .|. cast off one
%% Cu & turn your Partner :|. Right & Left :|:
%%endtext
% - - - - - - - - - - - - - - - - - - - - - - - - -
